src/topics/icons/flexible-gs.svg

<svg height="256" preserveAspectRatio="xMidYMid" viewBox="0 0 256 256" width="256" xmlns="http://www.w3.org/2000/svg"><path d="m34.1333333 0h187.7333337c18.850133 0 34.133333 15.2832 34.133333 34.1333333v187.7333337c0 18.850133-15.2832 34.133333-34.133333 34.133333h-187.7333337c-18.8501333 0-34.1333333-15.2832-34.1333333-34.133333v-187.7333337c0-18.8501333 15.2832-34.1333333 34.1333333-34.1333333z" fill="#222"/><path d="m49.7493333 155.127467c0 11.067733 5.6405334 21.2864 15.2618667 26.786133l16.96 9.864533v-37.8624l-32.2218667-18.760533zm32.3114667-90.9184003-17.0154667 9.8773333c-9.6213333 5.4997333-15.3002666 15.7184-15.3002666 26.786133v19.195734l32.2218666 18.756266v-37.073066l32.8490667-18.7520003zm13.7173333 97.2117333v37.8624l17.1391997 9.966933c9.527467 5.444267 20.791467 5.444267 30.318934 0l16.989866-9.966933v-37.3248l-31.752533 18.487467zm78.2591997 30.357333 16.96-9.864533c9.621334-5.504 15.261867-15.722667 15.261867-26.786133v-19.434667l-32.221867 18.760533zm-13.2096-135.0527997-17.4464-9.9754666c-9.527466-5.4442667-21.230933-5.4442667-30.7584 0l-17.3482663 9.9157333 32.7808003 18.7904zm30.114134 17.3610667-17.015467-9.8133333-32.64 18.7434666 32.7424 18.7434667v37.602133l32.221867-18.756266v-19.733334c.004266-11.067733-5.687467-21.2863997-15.3088-26.786133zm-95.1637337 35.255467v36.983466l32.6911997 19.029334 31.752534-18.491734v-37.525333l-32.174934-18.7818667z" fill="#fff"/></svg>

<?xml version="1.0" encoding="UTF-8" standalone="no"?>
<svg width="256px" height="256px" viewBox="0 0 256 256" version="1.1" xmlns="http://www.w3.org/2000/svg" xmlns:xlink="http://www.w3.org/1999/xlink" preserveAspectRatio="xMidYMid">
	<g>
		<path d="M34.1333333,0 L221.866667,0 C240.7168,0 256,15.2832 256,34.1333333 L256,221.866667 C256,240.7168 240.7168,256 221.866667,256 L34.1333333,256 C15.2832,256 0,240.7168 0,221.866667 L0,34.1333333 C0,15.2832 15.2832,0 34.1333333,0 L34.1333333,0 Z" fill="#222222"></path>
		<path d="M49.7493333,155.127467 C49.7493333,166.1952 55.3898667,176.413867 65.0112,181.9136 L81.9712,191.778133 L81.9712,153.915733 L49.7493333,135.1552 L49.7493333,155.127467 L49.7493333,155.127467 Z M82.0608,64.2090667 L65.0453333,74.0864 C55.424,79.5861333 49.7450667,89.8048 49.7450667,100.872533 L49.7450667,120.068267 L81.9669333,138.824533 L81.9669333,101.751467 L114.816,82.9994667 L82.0608,64.2090667 L82.0608,64.2090667 Z M95.7781333,161.4208 L95.7781333,199.2832 L112.917333,209.250133 C122.4448,214.6944 133.7088,214.6944 143.236267,209.250133 L160.226133,199.2832 L160.226133,161.9584 L128.4736,180.445867 L95.7781333,161.4208 L95.7781333,161.4208 Z M174.037333,191.778133 L190.997333,181.9136 C200.618667,176.4096 206.2592,166.190933 206.2592,155.127467 L206.2592,135.6928 L174.037333,154.453333 L174.037333,191.778133 L174.037333,191.778133 Z M160.827733,56.7253333 L143.381333,46.7498667 C133.853867,41.3056 122.1504,41.3056 112.622933,46.7498667 L95.2746667,56.6656 L128.055467,75.456 L160.827733,56.7253333 L160.827733,56.7253333 Z M190.941867,74.0864 L173.9264,64.2730667 L141.2864,83.0165333 L174.0288,101.76 L174.0288,139.362133 L206.250667,120.605867 L206.250667,100.872533 C206.254933,89.8048 200.5632,79.5861333 190.941867,74.0864 L190.941867,74.0864 L190.941867,74.0864 Z M95.7781333,109.341867 L95.7781333,146.325333 L128.469333,165.354667 L160.221867,146.862933 L160.221867,109.3376 L128.046933,90.5557333 L95.7781333,109.341867 L95.7781333,109.341867 Z" fill="#FFFFFF"></path>
	</g>
</svg>
